static/img/kroki/d9e3c79ce1ea0e237b56f42f66bd2037.svg

<?xml version="1.0" encoding="us-ascii" standalone="no"?><svg xmlns="http://www.w3.org/2000/svg" xmlns:xlink="http://www.w3.org/1999/xlink" contentStyleType="text/css" height="252px" preserveAspectRatio="none" style="width:307px;height:252px;" version="1.1" viewBox="0 0 307 252" width="307px" zoomAndPan="magnify"><defs/><g><!--class digitalocean_droplet--><g id="elem_digitalocean_droplet"><rect codeLine="22" fill="#3D176E" height="39.7891" id="digitalocean_droplet" rx="2.5" ry="2.5" style="stroke:#000D19;stroke-width:0.5;" width="211" x="7" y="206.58"/><ellipse cx="22" cy="226.4745" fill="#ADD1B2" rx="11" ry="11" style="stroke:#181818;stroke-width:1.0;"/><path d="M24.9688,232.1152 Q24.3906,232.412 23.75,232.5527 Q23.1094,232.7089 22.4063,232.7089 Q19.9063,232.7089 18.5781,231.0683 Q17.2656,229.412 17.2656,226.287 Q17.2656,223.162 18.5781,221.5058 Q19.9063,219.8495 22.4063,219.8495 Q23.1094,219.8495 23.75,220.0058 Q24.4063,220.162 24.9688,220.4589 L24.9688,223.1777 Q24.3438,222.5995 23.75,222.3339 Q23.1563,222.0527 22.5313,222.0527 Q21.1875,222.0527 20.5,223.1308 Q19.8125,224.1933 19.8125,226.287 Q19.8125,228.3808 20.5,229.4589 Q21.1875,230.5214 22.5313,230.5214 Q23.1563,230.5214 23.75,230.2558 Q24.3438,229.9745 24.9688,229.3964 L24.9688,232.1152 Z " fill="#000000"/><text fill="#D9B8FF" font-family="Helvetica" font-size="17" lengthAdjust="spacing" textLength="169" x="41" y="232.3598">digitalocean_droplet</text></g><!--class digitalocean_firewall--><g id="elem_digitalocean_firewall"><rect codeLine="24" fill="#3D176E" height="39.7891" id="digitalocean_firewall" rx="2.5" ry="2.5" style="stroke:#000D19;stroke-width:0.5;" width="215" x="85" y="106.79"/><ellipse cx="100" cy="126.6845" fill="#ADD1B2" rx="11" ry="11" style="stroke:#181818;stroke-width:1.0;"/><path d="M102.9688,132.3252 Q102.3906,132.622 101.75,132.7627 Q101.1094,132.9189 100.4063,132.9189 Q97.9063,132.9189 96.5781,131.2783 Q95.2656,129.622 95.2656,126.497 Q95.2656,123.372 96.5781,121.7158 Q97.9063,120.0595 100.4063,120.0595 Q101.1094,120.0595 101.75,120.2158 Q102.4063,120.372 102.9688,120.6689 L102.9688,123.3877 Q102.3438,122.8095 101.75,122.5439 Q101.1563,122.2627 100.5313,122.2627 Q99.1875,122.2627 98.5,123.3408 Q97.8125,124.4033 97.8125,126.497 Q97.8125,128.5908 98.5,129.6689 Q99.1875,130.7314 100.5313,130.7314 Q101.1563,130.7314 101.75,130.4658 Q102.3438,130.1845 102.9688,129.6064 L102.9688,132.3252 Z " fill="#000000"/><text fill="#D9B8FF" font-family="Helvetica" font-size="17" lengthAdjust="spacing" textLength="173" x="119" y="132.5698">digitalocean_firewall</text></g><!--class digitalocean_team--><g id="elem_digitalocean_team"><rect codeLine="26" fill="#3D176E" height="39.7891" id="digitalocean_team" rx="2.5" ry="2.5" style="stroke:#000D19;stroke-width:0.5;" width="196" x="14.5" y="7"/><ellipse cx="29.5" cy="26.8945" fill="#ADD1B2" rx="11" ry="11" style="stroke:#181818;stroke-width:1.0;"/><path d="M32.4688,32.5352 Q31.8906,32.832 31.25,32.9727 Q30.6094,33.1289 29.9063,33.1289 Q27.4063,33.1289 26.0781,31.4883 Q24.7656,29.832 24.7656,26.707 Q24.7656,23.582 26.0781,21.9258 Q27.4063,20.2695 29.9063,20.2695 Q30.6094,20.2695 31.25,20.4258 Q31.9063,20.582 32.4688,20.8789 L32.4688,23.5977 Q31.8438,23.0195 31.25,22.7539 Q30.6563,22.4727 30.0313,22.4727 Q28.6875,22.4727 28,23.5508 Q27.3125,24.6133 27.3125,26.707 Q27.3125,28.8008 28,29.8789 Q28.6875,30.9414 30.0313,30.9414 Q30.6563,30.9414 31.25,30.6758 Q31.8438,30.3945 32.4688,29.8164 L32.4688,32.5352 Z " fill="#000000"/><text fill="#D9B8FF" font-family="Helvetica" font-size="17" lengthAdjust="spacing" textLength="154" x="48.5" y="32.7798">digitalocean_team</text></g><!--link digitalocean_firewall to digitalocean_droplet--><g id="link_digitalocean_firewall_digitalocean_droplet"><path codeLine="28" d="M176.69,147.01 C163.87,162.68 145.74,184.84 132.02,201.62 " fill="none" id="digitalocean_firewall-to-digitalocean_droplet" style="stroke:#1A83AF;stroke-width:2.0;"/><polygon fill="#1A83AF" points="128.27,205.2,137.0578,200.7532,131.43,201.3251,130.858,195.6973,128.27,205.2" style="stroke:#1A83AF;stroke-width:2.0;"/></g><!--link digitalocean_team to digitalocean_droplet--><g id="link_digitalocean_team_digitalocean_droplet"><path codeLine="29" d="M97.76,47.07 C87.02,62.32 73.36,84.69 67.5,106.79 C62.97,123.89 62.97,129.49 67.5,146.58 C72.76,166.44 84.32,186.51 94.41,201.45 " fill="none" id="digitalocean_team-to-digitalocean_droplet" style="stroke:#1A83AF;stroke-width:2.0;"/><polygon fill="#1A83AF" points="97.76,205.31,95.9574,195.6275,94.9274,201.1898,89.3651,200.1597,97.76,205.31" style="stroke:#1A83AF;stroke-width:2.0;"/></g><!--link digitalocean_team to digitalocean_firewall--><g id="link_digitalocean_team_digitalocean_firewall"><path codeLine="30" d="M128.31,47.22 C141.13,62.89 159.26,85.05 172.98,101.83 " fill="none" id="digitalocean_team-to-digitalocean_firewall" style="stroke:#1A83AF;stroke-width:2.0;"/><polygon fill="#1A83AF" points="176.73,105.41,174.142,95.9073,173.57,101.5351,167.9422,100.9632,176.73,105.41" style="stroke:#1A83AF;stroke-width:2.0;"/></g><!--SRC=[hP1FJy904CNl_HIRS2QX4gMzc1GIeXTYn9inPkZEbWtRtMPsaA3nkqj5pDe_SF4wxpVptfkrbYYmh7WlIYnNI3xo6sqh82X5HkHsCsSSYO5IeCQJfZXtbYy22oXHtA5vGzOvD8cdjSut5hqNLu4qXNnJaDjQUJpF1DOV9BGSK3C3tcVCf5TRnY2CJ5U9KasoUNGmbl7a1bkO8udqWun68ncdJUIYrTdUlyHIlwE8mwSj76ChPilYcpgRiYQ2aAsY9xqtumD8gMqXheFPup4JMQG_y-KQfDlLj0BZGnlFIEXuN-6irGhJHAf99tpV1-VrvuJKXMOmBaUmhv9SPP35H_JP9IjDk0DZ-dJ6WtEjTMyDdmTnbeop-SlmjjCtQb_xtvrJb2y0]--></g></svg>

<svg xmlns="http://www.w3.org/2000/svg" width="307" height="252" preserveAspectRatio="none" style="width:307px;height:252px"><rect width="211" height="39.789" x="7" y="206.58" fill="#3D176E" rx="2.5" ry="2.5" style="stroke:#000d19;stroke-width:.5"/><circle cx="22" cy="226.475" r="11" fill="#ADD1B2" style="stroke:#181818;stroke-width:1"/><path d="M24.969 232.115q-.578.297-1.219.438-.64.156-1.344.156-2.5 0-3.828-1.64-1.312-1.657-1.312-4.782t1.312-4.781q1.328-1.656 3.828-1.656.703 0 1.344.156.656.156 1.219.453v2.719q-.625-.578-1.219-.844-.594-.281-1.219-.281-1.343 0-2.031 1.078-.688 1.062-.688 3.156 0 2.094.688 3.172.688 1.062 2.031 1.062.625 0 1.219-.265.594-.281 1.219-.86v2.72Z"/><text x="41" y="232.36" fill="#D9B8FF" font-family="Helvetica" font-size="17" textLength="169">digitalocean_droplet</text><rect width="215" height="39.789" x="85" y="106.79" fill="#3D176E" rx="2.5" ry="2.5" style="stroke:#000d19;stroke-width:.5"/><circle cx="100" cy="126.684" r="11" fill="#ADD1B2" style="stroke:#181818;stroke-width:1"/><path d="M102.969 132.325q-.578.297-1.219.438-.64.156-1.344.156-2.5 0-3.828-1.64-1.312-1.657-1.312-4.782t1.312-4.781q1.328-1.656 3.828-1.656.703 0 1.344.156.656.156 1.219.453v2.719q-.625-.579-1.219-.844-.594-.281-1.219-.281-1.344 0-2.031 1.078-.688 1.062-.688 3.156 0 2.094.688 3.172.688 1.062 2.031 1.062.625 0 1.219-.265.594-.281 1.219-.86v2.72Z"/><text x="119" y="132.57" fill="#D9B8FF" font-family="Helvetica" font-size="17" textLength="173">digitalocean_firewall</text><rect width="196" height="39.789" x="14.5" y="7" fill="#3D176E" rx="2.5" ry="2.5" style="stroke:#000d19;stroke-width:.5"/><circle cx="29.5" cy="26.895" r="11" fill="#ADD1B2" style="stroke:#181818;stroke-width:1"/><path d="M32.469 32.535q-.578.297-1.219.438-.64.156-1.344.156-2.5 0-3.828-1.64-1.312-1.657-1.312-4.782t1.312-4.781q1.328-1.656 3.828-1.656.703 0 1.344.156.656.156 1.219.453v2.719q-.625-.578-1.219-.844-.594-.281-1.219-.281-1.343 0-2.031 1.078-.688 1.062-.688 3.156 0 2.094.688 3.172.688 1.062 2.031 1.062.625 0 1.219-.265.594-.281 1.219-.86v2.72Z"/><text x="48.5" y="32.78" fill="#D9B8FF" font-family="Helvetica" font-size="17" textLength="154">digitalocean_team</text><path fill="none" d="M176.69 147.01c-12.82 15.67-30.95 37.83-44.67 54.61" style="stroke:#1a83af;stroke-width:2"/><path fill="#1A83AF" d="m128.27 205.2 8.788-4.447-5.628.572-.572-5.628-2.588 9.503z" style="stroke:#1a83af;stroke-width:2"/><path fill="none" d="M97.76 47.07c-10.74 15.25-24.4 37.62-30.26 59.72-4.53 17.1-4.53 22.7 0 39.79 5.26 19.86 16.82 39.93 26.91 54.87" style="stroke:#1a83af;stroke-width:2"/><path fill="#1A83AF" d="m97.76 205.31-1.803-9.683-1.03 5.563-5.562-1.03 8.395 5.15z" style="stroke:#1a83af;stroke-width:2"/><path fill="none" d="M128.31 47.22c12.82 15.67 30.95 37.83 44.67 54.61" style="stroke:#1a83af;stroke-width:2"/><path fill="#1A83AF" d="m176.73 105.41-2.588-9.503-.572 5.628-5.628-.572 8.788 4.447z" style="stroke:#1a83af;stroke-width:2"/></svg>
